icons/save-as-24.svg

<svg id="icons" xmlns="http://www.w3.org/2000/svg" viewBox="0 0 24 24"><defs><style>.cls-1{fill:none;}</style></defs><path d="M7,14h6.227l1-1H6v8H3V3H6V9.34375A.7689.7689,0,0,0,6.84375,10h10.3125c.02972,0,.05493-.01093.08392-.01324L18,9.22693V3.17377l3,2.27838V7.22827a1.99141,1.99141,0,0,1,1,.38544V5.37579a.84455.84455,0,0,0-.33887-.67645L18.27551,2.16809C18.12842,2.05933,17.95154,2,16.76489,2H2.84375A.84374.84374,0,0,0,2,2.84375v18.3125A.84374.84374,0,0,0,2.84375,22H7.47137l.42853-1H7ZM14,3h1V6H14ZM7,3h6V7h3V3h1V9H7ZM21,14.713l1-.99988v7.44312A.84374.84374,0,0,1,21.15625,22H13.71234l1.00012-1H17V18.71265l1-.99988V21h3Zm1.94946-4.77893L21.53558,8.5202a.96534.96534,0,0,0-1.38488-.02966L9.99792,18.64337,8.24219,22.73956a.37134.37134,0,0,0,.48761.48761L12.826,21.4715,22.97913,11.319A.96545.96545,0,0,0,22.94946,9.93408ZM9.78027,21.68848l.96125-2.24036,1.28,1.28027Zm3.015-1.60041-1.41346-1.41375,7.29761-7.2984L20.09326,12.79Zm9.15655-9.15661L20.80029,12.083l-1.41388-1.41419,1.16828-1.16839a.41937.41937,0,0,1,.59912.00616l.804.83808A.41931.41931,0,0,1,21.95178,10.93146Z"/><rect class="cls-1" width="24" height="24"/></svg>

<svg xmlns="http://www.w3.org/2000/svg" viewBox="0 0 24 24"><path d="M7 14h6.227l1-1H6v8H3V3h3v6.344a.769.769 0 0 0 .844.656h10.312c.03 0 .055-.01.084-.013l.76-.76V3.174l3 2.278v1.776a1.991 1.991 0 0 1 1 .386V5.376a.845.845 0 0 0-.339-.677l-3.385-2.53c-.148-.11-.324-.169-1.511-.169H2.844A.844.844 0 0 0 2 2.844v18.312a.844.844 0 0 0 .844.844H7.47l.429-1H7zm7-11h1v3h-1zM7 3h6v4h3V3h1v6H7zm14 11.713l1-1v7.443a.844.844 0 0 1-.844.844h-7.444l1-1H17v-2.287l1-1V21h3zm1.95-4.779L21.535 8.52a.965.965 0 0 0-1.385-.03L9.998 18.644 8.242 22.74a.371.371 0 0 0 .488.487l4.096-1.756L22.979 11.32a.965.965 0 0 0-.03-1.385zM9.78 21.688l.962-2.24 1.28 1.28zm3.015-1.6l-1.413-1.414 7.297-7.298 1.414 1.414zm9.157-9.157L20.8 12.083l-1.414-1.414L20.555 9.5a.42.42 0 0 1 .599.007l.804.838a.42.42 0 0 1-.006.586z"/><path fill="none" d="M0 0h24v24H0z"/></svg>
